X:1
T:Title
%%score { ( 1 4 ) | ( 2 3 5 ) }
L:1/8
Q:1/4=100
M:3/4
K:G
V:1 treble nm="Grand Piano"
V:4 treble 
V:2 bass 
V:3 bass 
V:5 bass 
V:1
 [DB]>A [G,B,G]2 [G,B,D]2 | [_B,E]2 [=B,D]2- [G,B,D]2 | [DB]>A G2 E2 | F6 | %4
w: C.~Austin~Miles * * *||||
 [Ec]>B [A,CA]2 [A,C^G]2 | [CA]2 A,2 A,2 | [Ac]>c [Bd]2 [Ac]2 | [GB]6 | [DB]>A [G,B,G]2 [G,B,D]2 | %9
w: |||||
 z2 [=B,D]4 | [DB]>B d2 B2 | [Ec]6 | [EG]>F G2 A2 | z2 d4 | [Fd]>d [CFc]2 [CDA]2 | [B,DG]6 | %16
w: |||||||
 [DB]>B [B,GB]2 [B,EB]2 | [Fc]2 [cd]2 C2 | [Dc]>c c2 [ce]2 | [Bd]4 z2 | [Bd]>d [Bd]2 [A^d]2 | %21
w: |||||
 z2 [Be]4 | [A^c]>c [Ad]2 [Ec]2 | [Ac]6 | [DB]>B [B,GB]2 [B,EB]2 | [Fc]2 [cd]2 C2 | %26
w: |||||
 [Dc]>c c2 [ce]2 | [Bd]4 z2 | B>A G2 d2 | [Ee]2 c4 | B2 A2 D2 | [Dd]4 [G,G]2 | .B2 z2 z2 | G6 |] %34
w: ||||||||
V:2
 z z/ C/ D,2 D,2 | z2 D,2 D,2 | z z/ C/ [D,G,B,]2 [D,G,B,]2 | [D,C]6 | z z/ D/ F,2 F,2 | %5
 z2 F,2 F,2 | z z/ A/ [F,A,]2 [F,A,]2 | z2 D,2 D,2 | z z/ C/ D,2 D,2 | z2 D,2 D,2 | %10
 z z/[K:treble] D/ [G,B,=F]2 [G,B,F]2 | z2 G,2 G,2 | z z/ E/ [A,E]2 [A,E]2 | D2 D2- [G,D]2 | %14
 z z/[K:treble] F/ A,2[K:bass] A,2 | G,6 | z z/ E/ G,2 G,2 | D,2 [A,C]2 A,2 | %18
 z z/[K:treble] E/ [A,CF]2[K:bass] [A,C]2 | G,,2 G,2 G,2 | %20
 z z/[K:treble] c/[K:bass] [D,G,]2 [B,,F,]2 | z2 [E,G,]2 E,2 | %22
 z z/[K:treble] B/[K:bass] [E,G,]2 [E,G,]2 | [D,A,]6 | z z/ E/ G,2 G,2 | D,2 [A,C]2 A,2 | %26
 z z/[K:treble] E/ [A,CF]2[K:bass] [A,C]2 | G,,2 G,2 G,2 | [G,D=F]>[A,DF] [B,DF]2 [G,B,F]2 | %29
 [C,C]2 [A,CE]4 | [D,G,D]2 [D,F,D]2 [C,F,]2 | [B,,G,]4 B,,2 | C,-[C,C] [D,B,D]2 A,C/B,/ | %33
 [G,B,D]6 |] %34
V:3
 G,,6 | G,,6 | G,,6 | z2 F,2 F,2 | D,6 | D,6 | D,6 | G,,6 | G,,6 | G,,6 | G,,6[K:treble] | C,6 | %12
 ^C,6 | z2 [G,B,]2 z2 | D,6[K:treble][K:bass] | x6 | G,,2 z2 z2 | x6 | %18
 D,2[K:treble] z2[K:bass] z2 | x6 | G,,6[K:treble][K:bass] | G,,6 | A,,6[K:treble][K:bass] | x6 | %24
 G,,2 z2 z2 | x6 | D,2[K:treble] z2[K:bass] z2 | x6 | x6 | x6 | x6 | x6 | .G,2 z2 [D,D]2 | x6 |] %34
V:4
 x6 | z2 G,2 z2 | x6 | z2 A,2 A,2 | x6 | z2 [CD]4 | x6 | z2 G,2 G,2 | x6 | [_B,E]2 G,2 G,2 | x6 | %11
 z2 C2 C2 | x6 | B2 z2 B,2 | x6 | x6 | x6 | x6 | x6 | z2 B,2 B,2 | x6 | [Ge]2 z2 G,2 | x6 | x6 | %24
 x6 | x6 | x6 | z2 B,2 B,2 | x6 | x6 | x6 | x6 | E-[EA] G2 FA/G/ | x6 |] %34
V:5
 x6 | x6 | x6 | x6 | x6 | x6 | x6 | x6 | x6 | x6 | x3/2[K:treble] x9/2 | x6 | x6 | D,6 | %14
 x3/2[K:treble] x5/2[K:bass] x2 | x6 | x6 | x6 | x3/2[K:treble] x5/2[K:bass] x2 | x6 | %20
 x3/2[K:treble] x/[K:bass] x4 | x6 | x3/2[K:treble] x/[K:bass] x4 | x6 | x6 | x6 | %26
 x3/2[K:treble] x5/2[K:bass] x2 | x6 | x6 | x6 | x6 | x6 | x6 | x6 |] %34

